icons/folder-cue.svg

<svg xmlns="http://www.w3.org/2000/svg" viewBox="0 0 16 16">
<path id="folder" fill="#448aff" d="m6.922 3.768-.644-.536A1 1 0 0 0 5.638 3H2a1 1 0 0 0-1 1v8a1 1 0 0 0 1 1h12a1 1 0 0 0 1-1V5a1 1 0 0 0-1-1H7.562a1 1 0 0 1-.64-.232" />
<path id="motive" fill="#bbdefb" d="M 11 5 C 8.2385 5 6 7.2385 6 10 C 6 12.7615 8.2385 15 11 15 C 13.7615 15 16 12.7615 16 10 C 16 7.2385 13.7615 5 11 5 z M 11 6 A 4 4 0 0 1 11 14 A 4 4 0 0 1 11 6 z M 11 7.25 A 2.7505 2.7505 0 0 0 11 12.75 A 2.7505 2.7505 0 0 0 11 7.25 z M 11 8.25 A 1.75 1.75 0 0 1 11 11.75 A 1.75 1.75 0 0 1 11 8.25 z " />
</svg>

<svg xmlns="http://www.w3.org/2000/svg" viewBox="0 0 16 16"><path id="folder" fill="#448aff" d="m6.922 3.768-.644-.536A1 1 0 0 0 5.638 3H2a1 1 0 0 0-1 1v8a1 1 0 0 0 1 1h12a1 1 0 0 0 1-1V5a1 1 0 0 0-1-1H7.562a1 1 0 0 1-.64-.232"/><path id="motive" fill="#bbdefb" d="M11 5a5 5 0 1 0 0 10 5 5 0 0 0 0-10m0 1a4 4 0 0 1 0 8 4 4 0 0 1 0-8m0 1.25a2.75 2.75 0 0 0 0 5.5 2.75 2.75 0 0 0 0-5.5m0 1a1.75 1.75 0 0 1 0 3.5 1.75 1.75 0 0 1 0-3.5"/></svg>
